X:1
T:Title
%%score { ( 1 3 ) | ( 2 4 ) }
L:1/8
M:2/4
K:F
V:1 treble nm="Grand Piano"
V:3 treble 
V:2 bass 
V:4 bass 
V:1
 z2 z[Q:1/4=88] C | FF FG | AA AG | FE FA | [Ac]3 A | BB [EG][EG] | AA FA | GG GA | [EG]4 | FF FG | %10
 AA AG | FE FA | [Ac]3 c | =BA GA | =BA GG | [Ec][Gc] [Fd][Ge] | [Ec]4 | c c3 | [Fd] [Fd]3 | %19
 BB AG |[M:3/8] c3 |[M:1/8] C |[M:2/4] F[EG] AB | cd cA | Gc ed | [Ec]4 | c c3 | [Fd] [Fd]3 | %28
 BB AG |[M:3/8] c3 |[M:1/8] C |[M:2/4] DE FG | %32
[M:9/16] Ad/-d/c-c/[DFA][Q:1/4=85][Q:1/4=83][Q:1/4=80][Q:1/4=77][Q:1/4=74][Q:1/4=72][Q:1/4=69] | %33
[M:2/4] [B,DB][B,DB] [CEA][B,EG] |[M:3/8] [A,CF]3 |] %35
V:2
 z2 z [F,A,] | [F,A,C][F,A,C] [F,A,C][F,B,C] | [F,CF][F,CF] [F,CF][F,B,C] | %3
 [F,A,C][F,G,C] [F,A,C][F,CF] | [F,F]3 [F,CF] | [G,B,D][G,B,D] [C,C][C,C] | %6
 [F,CF][F,CF] [F,A,C][K:treble][F,CF] | [G,CE][G,CE] [G,=B,F][G,B,F] | [C,C]3 [C,G,B,] | %9
 [F,A,C][F,A,C] [F,A,C][F,B,C] | [F,CF][F,CF] [F,CF][F,B,C] | %11
 [F,A,C][F,G,C] [F,A,C][K:treble][F,CF] | [F,F]3 [A,CF] | [G,DF][A,CF] [=B,DF][A,CF] | %14
 [G,=B,F][A,CF] [B,DF][G,B,F] | [C,C][E,C] [G,=B,][G,B,] | C2 z2 | [F,A,F] [F,A,F]3 | %18
 [D,A,] [D,A,]3 | [G,B,D][K:treble][G,B,D] [CE][B,CE] |[M:3/8] [A,CF]3 |[M:1/8] [G,B,] | %22
[M:2/4][K:bass] [F,A,C][C,C][K:treble] [F,CF][G,CE] | [A,CF][B,F] [A,CF][F,CF] | %24
 [G,CE][G,EG] [G,CG][G,=B,F] | C2 z2 | [F,A,F] [F,A,F]3 | [D,A,] [D,A,]3 | %28
 [G,B,D][K:treble][G,B,D] [CE][B,CE] |[M:3/8] [A,CF]3 |[M:1/8][K:bass] C, |[M:2/4] D,E, F,G, | %32
[M:9/16] A,D/-D/C-C/D, |[M:2/4] G,G, C,C, |[M:3/8] F,3 |] %35
V:3
 x4 | x4 | x4 | x4 | x4 | x4 | x4 | x4 | z B, A,C | x4 | x4 | x4 | x4 | x4 | x4 | x4 | z2 B,2 | %17
 x4 | x4 | x4 |[M:3/8] x3 |[M:1/8] x |[M:2/4] x4 | x4 | x4 | z2 B,2 | x4 | x4 | x4 |[M:3/8] x3 | %30
[M:1/8] x |[M:2/4] x4 |[M:9/16] x9/2 |[M:2/4] x4 |[M:3/8] x3 |] %35
V:4
 x4 | x4 | x4 | x4 | x4 | x4 | x3[K:treble] x | x4 | x4 | x4 | x4 | x3[K:treble] x | x4 | x4 | x4 | %15
 x4 | C,4 | x4 | x4 | x[K:treble] x3 |[M:3/8] x3 |[M:1/8] x |[M:2/4][K:bass] x2[K:treble] x2 | x4 | %24
 x4 | C,4 | x4 | x4 | x[K:treble] x3 |[M:3/8] x3 |[M:1/8][K:bass] x |[M:2/4] x4 |[M:9/16] x9/2 | %33
[M:2/4] x4 |[M:3/8] x3 |] %35

